X:141
T:M{\aa}nssons polska
T:Polska fr{\aa}n Gusum
R:sl\"angpolska
H:efter Ivar Hultqvist, Norrk\"oping. Jfr #179
A:\"Osterg\"otland
B:SvL \"Ogl 304
Z:id:hn-sp-141
M:3/4
L:1/16
K:D
D3F A3d f2d2 | edcd A4 F4 | A2BA G2E2 E2c2 | c2Bc d2A2 F2D2 |
D3F A3d f2d2 | edcd A4 F4 | A2BA G2E2 E2c2 | c2Bc d8 :| 
|: d3f f3a a2f2 | gagf g2b2 b4 | A3c c2e2 e2c2 | dedc d2f2 f4 |
d3f f3a a2f2 | gagf g2b2 b4 | A3c c2e2 e2c2 | edcd e4 d4 :|

